!!!!SEGMENT: pl-wnifc--13846--087_anonim--87-gdy-noc-nadchodzi.krn
!!!cenid: 18xx:3309
!!!COM: Anonim
!!!COM-rismid: pe30004985
!!!CDT:
!!!CNT:
!!!OTL: 87. Gdy noc nadchodzi
!!!PDT: 1833
!!!AGN:
!!!SMS-siglum: PL-Wnifc
!!!SMS-shelfmark: 13846
!!!SMS-shelfwork: 087 W
!!!SMS-variant:
!!!SMS-altvar:
!!!NIFC-rismid: 1001039002
!!!URL-scan: http://repozytorium.nifc.pl/skany/pl-wnifc-nut--13846
!!!ONB-nifc:
!!!OMD: Andante
!!!key: C
**kern	**kern	**dynam	**kern	**text	**text
*group2	*group2	*	*group1	*	*
*part3	*part2	*part2	*part1	*part1	*part1
*staff3	*staff2	*	*staff1	*staff1	*staff1
*I"[Piano]	*I"[Piano]	*	*I"[Soprano]	*	*
*Ipiano	*Ipiano	*	*Isoprn	*	*
*ICklav	*ICklav	*	*ICvox	*	*
*IGacmp	*IGacmp	*	*IGsolo	*	*
*clefF4	*clefG2	*	*clefG2	*	*
*k[]	*k[]	*	*k[]	*	*
*C:	*C:	*	*C:	*	*
*M3/8	*M3/8	*	*M3/8	*	*
*>[A,A,B]	*>[A,A,B]	*	*>[A,A,B]	*	*
=1	=1	=1	=1	=1	=1
*>A	*>A	*	*>A	*	*
!	!	!	!LO:TX:b:B:rj:t=E.55.	!	!
8C\L	(>16e\LL (>16g	.	(>16g\LL	Gdy	Sa-
.	16e\JJ) 16cc)	.	16cc\JJ)	.	.
!	!	!LO:DY:rj	!	!	!
8E\	8.e\L 8.cc	sf	8.cc\L	noc	-ma
8C\J	.	.	.	.	.
.	16g\Jk 16ee	.	16ee\Jk	nad-	się
=2	=2	=2	=2	=2	=2
*	*	*^	*	*	*
8GG/	(>16f\LL 16ee	.	.	(>16ee\LL	-cho-	tyl-
.	16f\JJ) 16dd	.	.	16dd\JJ)	.	.
!	!	!LO:DY:rj	!LO:DY:b=2:rj	!	!	!
4G\	8.f\L 8.dd	fp	f	(>8.dd\L	-dzi	-ko
.	16e\Jk 16cc	.	.	16cc\Jk)	.	.
*	*	*v	*v	*	*	*
=3	=3	=3	=3	=3	=3
!!mixed beam:problem
!LO:TX:t=P:problem:mixed beam	!	!	!	!	!
8GG/L	16d\LL 16b	.	(16b\LL	wszy-	mi-
.	16f\JJ 16dd	.	16dd\JJ)	.	.
8G\ 8B	8.f\ 8.ffL	.	8.ff\	-stko	-łość
8G\J 8d	.	.	.	.	.
.	16f\Jk 16b	.	16b\	spo-	od-
!!LO:LB:g=original
=4	=4	=4	=4	=4	=4
!!mixed beam:problem
!LO:TX:t=P:problem:mixed beam	!	!	!	!	!
8c\L	(>16f\LL 16dd	.	(>16dd\LL	-czy-	-ży-
.	16e\JJ 16cc)	.	16cc\JJ)	.	.
8G\	4e\ 4cc	.	4cc\	-wa	-wa,
8C/J	.	.	.	.	.
=5:|!	=5:|!	=5:|!	=5:|!	=5:|!	=5:|!
*>B	*>B	*	*>B	*	*
!!mixed beam:problem
!LO:TX:t=P:problem:mixed beam	!	!	!	!	!
.	.	.	8qg/	.	.
*^	*	*	*	*	*
8GG/L	4.GG\	(>16b\LL	.	8ff\	A-	.
.	.	16dd\JJ) 16ff	.	.	.	.
8G\	.	8.dd^<\L 8.ff	.	8.ff\	-mant	.
8G\J	.	.	.	.	.	.
.	.	16b\Jk 16dd	.	16dd\	znu-	.
*v	*v	*	*	*	*	*
=6	=6	=6	=6	=6	=6
8C/L	(>16dd\LL 16ff	.	16dd (>16ff\LL	-dzo-	.
.	16cc\JJ) 16ee	.	16cc 16ee\JJ)	.	.
8G/	4cc^<\ 4ee	.	4cc 4ee\	-ny	.
8G/J	.	.	.	.	.
!!LO:LB:g=original
=7	=7	=7	=7	=7	=7
8GG/	8b\ 8dd	.	8dd\	dłu-	.
8.GG/L	8.b\L 8.gg	.	8.gg\	-gièm	.
16GG/Jk	16dd\Jk 16ff	.	16ff\	cze-	.
=8	=8	=8	=8	=8	=8
8C/	(>16dd\LL 16ff	.	(>16ff\LL	-ka-	.
.	16cc\JJ) 16ee	.	16ee\JJ)	.	.
4C/	8cc\ 8ee	.	8ee\	-niem,	.
.	8r	.	8r	.	.
=9	=9	=9	=9	=9	=9
8C/L	16e/LL 16g	.	(<16g/LL	na-	.
.	16e/JJ 16cc	.	16cc/JJ)	.	.
8E/	8.e\L 8.cc	.	8.cc\	-peł-	.
8C/J	.	.	.	.	.
.	16cc\Jk 16ee	.	16ee\	-nia	.
!!LO:LB:g=original
=10	=10	=10	=10	=10	=10
8GG/	(>16cc\LL 16ee	.	(>16ee\LL	e-	.
.	16b\JJ) 16dd	.	16dd\JJ)	.	.
4G\	(>8.b\L 8.dd	.	(>8.dd\L	-cho	.
.	16a\Jk) 16cc	.	16cc\Jk)	.	.
=11	=11	=11	=11	=11	=11
8GG\ 8G	16g\LL 16b	.	(>16b\LL	swèm	.
.	16b\JJ 16dd	.	16dd\JJ)	.	.
!	!	!LO:DY:b=2:rj	!	!	!
8.GG\L 8.G	8.dd\L 8.ff	sf	8.ff\	na-	.
16G\Jk	16f\Jk 16b	.	16b\	-rze-	.
=12	=12	=12	=12	=12	=12
!!mixed beam:problem
!LO:TX:t=P:problem:mixed beam	!	!	!	!	!
8c\L	16f\LL 16dd	.	(>16dd\LL	-ka-	.
.	16e\JJ 16cc	.	16cc\JJ)	.	.
8G\	4e\ 4cc	.	8cc\	-niem.	.
8C/J	.	.	8r	.	.
==	==	==	==	==	==
*-	*-	*-	*-	*-	*-
!!!system-decoration: g1,[{g2}]
!!!ENC:Anastazja Marusiak
!!!END:2021-11-10
!!!EED: Jędrzej Mróz
!!!ESR: 2021-11-11
!!!RDF**kern: > = above
!!!RDF**kern: < = below
